svg/filled/SunFilledIcon.svg

<svg width="24" height="24" viewBox="0 0 24 24" xmlns="http://www.w3.org/2000/svg" fill="#cacaca"><path d="M12.0001 3.76259C12.4184 3.76259 12.7724 4.11654 12.7724 4.53485V6.5942C12.7724 7.04468 12.4184 7.36646 12.0001 7.36646C11.5496 7.36646 11.2278 7.04468 11.2278 6.5942V4.53485C11.2278 4.11654 11.5496 3.76259 12.0001 3.76259ZM12.0001 16.6335C12.4184 16.6335 12.7724 16.9875 12.7724 17.4058V19.4652C12.7724 19.9156 12.4184 20.2374 12.0001 20.2374C11.5496 20.2374 11.2278 19.9156 11.2278 19.4652V17.4058C11.2278 16.9875 11.5496 16.6335 12.0001 16.6335ZM19.4653 12.7723H17.4059C16.9554 12.7723 16.6337 12.4505 16.6337 12C16.6337 11.5817 16.9554 11.2277 17.4059 11.2277H19.4653C19.8836 11.2277 20.2375 11.5817 20.2375 12C20.2375 12.4505 19.8836 12.7723 19.4653 12.7723ZM7.36656 12C7.36656 12.4505 7.01261 12.7723 6.59431 12.7723H4.53495C4.08447 12.7723 3.7627 12.4505 3.7627 12C3.7627 11.5817 4.08447 11.2277 4.53495 11.2277H6.59431C7.01261 11.2277 7.36656 11.5817 7.36656 12ZM17.8242 7.26992L16.3441 8.75008C16.0545 9.03968 15.5718 9.03968 15.25 8.75008C14.9604 8.42831 14.9604 7.94565 15.25 7.65605L16.7302 6.17589C17.0198 5.8863 17.5024 5.8863 17.8242 6.17589C18.1138 6.49767 18.1138 6.98033 17.8242 7.26992ZM8.71801 15.2821C9.00761 15.6039 9.00761 16.0865 8.71801 16.3761L7.23785 17.8241C6.94826 18.1459 6.4656 18.1459 6.176 17.8241C5.85423 17.5345 5.85423 17.0519 6.176 16.7623L7.62398 15.2821C7.91358 14.9925 8.39624 14.9925 8.71801 15.2821ZM16.7302 17.8241L15.25 16.3761C14.9604 16.0865 14.9604 15.6039 15.25 15.2821C15.5718 14.9925 16.0545 14.9925 16.3441 15.2821L17.8242 16.7623C18.1138 17.0519 18.1138 17.5345 17.8242 17.8241C17.5024 18.1459 17.0198 18.1459 16.7302 17.8241ZM8.71801 8.75008C8.39624 9.03968 7.91358 9.03968 7.62398 8.75008L6.176 7.26992C5.85423 6.98033 5.85423 6.49767 6.176 6.17589C6.4656 5.8863 6.94826 5.8863 7.23785 6.17589L8.71801 7.65605C9.00761 7.94565 9.00761 8.42831 8.71801 8.75008ZM12.0001 15.6039C10.6808 15.6039 9.52245 14.9281 8.8789 13.8019C8.20318 12.7079 8.20318 11.3243 8.8789 10.1981C9.52245 9.10403 10.6808 8.39613 12.0001 8.39613C13.2872 8.39613 14.4456 9.10403 15.0891 10.1981C15.7649 11.3243 15.7649 12.7079 15.0891 13.8019C14.4456 14.9281 13.2872 15.6039 12.0001 15.6039Z"/></svg>

<svg width="24" height="24" fill="#cacaca" xmlns="http://www.w3.org/2000/svg"><path d="M12 3.763c.418 0 .772.354.772.772v2.06c0 .45-.354.771-.772.771a.744.744 0 01-.772-.772v-2.06c0-.417.322-.771.772-.771zm0 12.87c.418 0 .772.355.772.773v2.06c0 .45-.354.771-.772.771a.744.744 0 01-.772-.772v-2.06c0-.418.322-.771.772-.771zm7.465-3.86h-2.06a.744.744 0 01-.771-.773c0-.418.321-.772.772-.772h2.06c.417 0 .771.354.771.772 0 .45-.354.772-.772.772zM7.366 12c0 .45-.354.772-.772.772h-2.06A.743.743 0 013.764 12c0-.418.321-.772.772-.772h2.06c.417 0 .771.354.771.772zm10.458-4.73l-1.48 1.48c-.29.29-.772.29-1.094 0-.29-.322-.29-.804 0-1.094l1.48-1.48c.29-.29.772-.29 1.094 0 .29.322.29.804 0 1.094zm-9.106 8.012c.29.322.29.805 0 1.094l-1.48 1.448a.705.705 0 01-1.062 0 .705.705 0 010-1.062l1.448-1.48c.29-.29.772-.29 1.094 0zm8.012 2.542l-1.48-1.448c-.29-.29-.29-.772 0-1.094.322-.29.804-.29 1.094 0l1.48 1.48c.29.29.29.773 0 1.062-.322.322-.804.322-1.094 0zM8.718 8.75c-.322.29-.805.29-1.094 0L6.176 7.27c-.322-.29-.322-.772 0-1.094a.757.757 0 011.062 0l1.48 1.48c.29.29.29.772 0 1.094zM12 15.604a3.543 3.543 0 01-3.121-1.802c-.676-1.094-.676-2.478 0-3.604A3.61 3.61 0 0112 8.396c1.287 0 2.445.708 3.089 1.802.676 1.126.676 2.51 0 3.604A3.53 3.53 0 0112 15.604z"/></svg>
